icons/plexis/48/empathy.svg

<svg viewBox="0 0 48 48" xmlns="http://www.w3.org/2000/svg" xmlns:xlink="http://www.w3.org/1999/xlink">
  <linearGradient id="a" gradientUnits="userSpaceOnUse" x2="0" y1="47" y2="1">
    <stop offset="0" stop-color="#23bd88"/>
    <stop offset="1" stop-color="#26cd93"/>
  </linearGradient>
  <path d="m47 24c0 22.703-.297 23-23 23-22.703 0-23-.297-23-23 0-22.703.297-23 23-23 22.703 0 23 .297 23 23z" fill="url(#a)"/>
  <path d="m25 12.5c-4 0-7 .5-10.227 1.5-.937.289-1.371.875-1.773 1.773-1 2.227-1.5 4.227-1.5 7.727 0 2.5.5 4.5 1.5 7.73.289.938.816 1.543 1.773 1.77 1.648.39 2.927.68 4.148.918-.258 1.706-1.226 3.363-2.922 4.082 3.613.137 7.216-1.689 7.881-3.518.361.001.723.018 1.119.018 4 0 6-.5 10.227-1.5.957-.227 1.484-.832 1.773-1.77 1-3.23 1.5-5.23 1.5-7.73 0-2.5-.5-4.938-1.5-7.727-.332-.925-.835-1.484-1.773-1.773-3.227-1-6.227-1.5-10.227-1.5z" opacity=".1" transform=""/>
  <path d="m13.773 13c3.227-1 6.227-1.5 10.227-1.5 4 0 7 .5 10.227 1.5.938.289 1.441.848 1.773 1.773 1 2.789 1.5 5.227 1.5 7.727 0 2.5-.5 4.5-1.5 7.73-.289.938-.816 1.543-1.773 1.77-4.227 1-6.227 1.5-10.227 1.5-4 0-6-.5-10.227-1.5-.957-.227-1.484-.832-1.773-1.77-1-3.23-1.5-5.23-1.5-7.73 0-3.5.5-5.5 1.5-7.727.402-.898.836-1.484 1.773-1.773m0 0" fill="#ebeef2"/>
  <path d="m23 32.898c0 2-4 4.254-8 4.102 2-.848 3-3 3-5m5 .898" fill="#ebeef2"/>
  <path d="m20 22c0 1.105-.895 2-2 2-1.105 0-2-.895-2-2 0-1.105.895-2 2-2 1.105 0 2 .895 2 2m0 0" fill="#437fa2"/>
  <path d="m26 22c0 1.105-.895 2-2 2-1.105 0-2-.895-2-2 0-1.105.895-2 2-2 1.105 0 2 .895 2 2m0 0" fill="#437fa2"/>
  <path d="m32 22c0 1.105-.895 2-2 2-1.105 0-2-.895-2-2 0-1.105.895-2 2-2 1.105 0 2 .895 2 2m0 0" fill="#437fa2"/>
</svg>

<svg xmlns="http://www.w3.org/2000/svg" viewBox="0 0 48 48">
 <defs>
  <linearGradient id="linearGradient3764" y1="47" x2="0" y2="1" gradientUnits="userSpaceOnUse">
   <stop style="stop-color:#23bd88;stop-opacity:1"/>
   <stop offset="1" style="stop-color:#26cd93;stop-opacity:1"/>
  </linearGradient>
 </defs>
 <g>
  
  
  
 </g>
 <g>
  <path d="m 47,24 C 47,46.703 46.703,47 24,47 1.297,47 1,46.703 1,24 1,1.297 1.297,1 24,1 46.703,1 47,1.297 47,24 z" style="fill:url(#linearGradient3764);fill-opacity:1"/>
 </g>
 <g>
  <g>
   <g transform="translate(1,1)">
    <g style="opacity:0.1">
     <!-- color: #26cd93 -->
     <g>
      <path d="m 25 12.5 c -4 0 -7 0.5 -10.227 1.5 c -0.937 0.289 -1.371 0.875 -1.773 1.773 c -1 2.227 -1.5 4.227 -1.5 7.727 c 0 2.5 0.5 4.5 1.5 7.73 c 0.289 0.938 0.816 1.543 1.773 1.77 c 1.648 0.39 2.927 0.68 4.148 0.918 c -0.258 1.706 -1.226 3.363 -2.922 4.082 c 3.613 0.137 7.216 -1.689 7.881 -3.518 c 0.361 0.001 0.723 0.018 1.119 0.018 c 4 0 6 -0.5 10.227 -1.5 c 0.957 -0.227 1.484 -0.832 1.773 -1.77 c 1 -3.23 1.5 -5.23 1.5 -7.73 c 0 -2.5 -0.5 -4.938 -1.5 -7.727 c -0.332 -0.925 -0.835 -1.484 -1.773 -1.773 c -3.227 -1 -6.227 -1.5 -10.227 -1.5 z" transform="translate(-1,-1)"/>
     </g>
    </g>
   </g>
  </g>
 </g>
 <g>
  <g>
   <!-- color: #26cd93 -->
   <g>
    <path d="M 13.773,13 C 17,12 20,11.5 24,11.5 c 4,0 7,0.5 10.227,1.5 0.938,0.289 1.441,0.848 1.773,1.773 C 37,17.562 37.5,20 37.5,22.5 37.5,25 37,27 36,30.23 35.711,31.168 35.184,31.773 34.227,32 30,33 28,33.5 24,33.5 20,33.5 18,33 13.773,32 12.816,31.773 12.289,31.168 12,30.23 11,27 10.5,25 10.5,22.5 10.5,19 11,17 12,14.773 12.402,13.875 12.836,13.289 13.773,13 m 0,0" style="fill:#ebeef2;fill-opacity:1;stroke:none;fill-rule:nonzero"/>
    <path d="m 23 32.898 c 0 2 -4 4.254 -8 4.102 2 -0.848 3 -3 3 -5 m 5 0.898" style="fill:#ebeef2;fill-opacity:1;stroke:none;fill-rule:nonzero"/>
    <path d="m 20 22 c 0 1.105 -0.895 2 -2 2 -1.105 0 -2 -0.895 -2 -2 0 -1.105 0.895 -2 2 -2 1.105 0 2 0.895 2 2 m 0 0" style="fill:#437fa2;fill-opacity:1;stroke:none;fill-rule:nonzero"/>
    <path d="m 26 22 c 0 1.105 -0.895 2 -2 2 -1.105 0 -2 -0.895 -2 -2 0 -1.105 0.895 -2 2 -2 1.105 0 2 0.895 2 2 m 0 0" style="fill:#437fa2;fill-opacity:1;stroke:none;fill-rule:nonzero"/>
    <path d="m 32 22 c 0 1.105 -0.895 2 -2 2 -1.105 0 -2 -0.895 -2 -2 0 -1.105 0.895 -2 2 -2 1.105 0 2 0.895 2 2 m 0 0" style="fill:#437fa2;fill-opacity:1;stroke:none;fill-rule:nonzero"/>
   </g>
  </g>
 </g>
 <g>
  
 </g>
</svg>
